X:1
T:The Time of Day Jig
R:slip jig
B:Ryan's Mammoth Collection
N: 88 458
Z: Contributed by Ray Davies,  ray:davies99.freeserve.co.uk
M:9/8
L:1/8
K:Em
ug|\
BcB B2A G2A | B2d ded d2g | BcB B2A G2A | Bde e2d e2g |
BcB B2A G2A | B2d ded d2g | BcB B2A G2A | Bde e2d e2 H|]
uB|\
def gag fed | B2d d2c d2g | d2c B2A G2A | B2e e2d e3  |
def gag fed | B2d d2c d2g | d2c B2A G2A | B2e e2d e2 "_D.C."|]
